dist/img/sprites/official.svg

<svg width="82" height="82" viewBox="0 0 82 82" fill="none" xmlns="http://www.w3.org/2000/svg">
<circle cx="41" cy="41" r="40.5" stroke="#333333"/>
<path fill-rule="evenodd" clip-rule="evenodd" d="M40.5457 23.1303C40.6819 23.0451 40.8393 23 41 23C41.1606 23 41.318 23.0451 41.4542 23.1303L45.1057 25.4103C47.1122 26.6647 49.3679 27.4667 51.716 27.7606L54.8205 28.1497C55.0278 28.1756 55.2185 28.2763 55.3567 28.4329C55.495 28.5895 55.5713 28.7911 55.5714 29V40.0691C55.5714 43.122 54.7949 46.1248 53.315 48.795C51.835 51.4652 49.7002 53.7151 47.1114 55.3331L41.4542 58.8697C41.318 58.9549 41.1606 59 41 59C40.8393 59 40.6819 58.9549 40.5457 58.8697L34.8885 55.3331C32.2997 53.7151 30.1649 51.4652 28.6849 48.795C27.205 46.1248 26.4285 43.122 26.4285 40.0691V29C26.4286 28.7911 26.5049 28.5895 26.6432 28.4329C26.7814 28.2763 26.9721 28.1756 27.1794 28.1497L30.284 27.7606C32.6324 27.4675 34.8888 26.666 36.896 25.412L40.5457 23.1303ZM41 24.8686L37.8045 26.8657C35.5862 28.2522 33.0923 29.1385 30.4965 29.4629L28.1428 29.7543V40.0691C28.1431 42.831 28.8458 45.5474 30.1848 47.963C31.5237 50.3786 33.455 52.4139 35.7971 53.8777L41 57.1314L46.2028 53.8794C48.5451 52.4155 50.4766 50.3799 51.8156 47.964C53.1546 45.5481 53.8571 42.8313 53.8571 40.0691V29.7577L51.5034 29.4646C48.9076 29.1402 46.4137 28.2539 44.1954 26.8674L41 24.8686Z" fill="#333333"/>
<path fill-rule="evenodd" clip-rule="evenodd" d="M47.6068 36.464L40.7497 43.3212C40.589 43.4818 40.371 43.5721 40.1437 43.5721C39.9164 43.5721 39.6984 43.4818 39.5377 43.3212L36.1091 39.8926L37.3211 38.6806L40.1428 41.5023L46.3948 35.2503L47.6068 36.464Z" fill="#333333"/>
</svg>

<svg width="82" height="82" viewBox="0 0 82 82" fill="none" xmlns="http://www.w3.org/2000/svg"><circle cx="41" cy="41" r="40.5" stroke="#333"/><path fill-rule="evenodd" clip-rule="evenodd" d="M40.546 23.13a.856.856 0 01.908 0l3.652 2.28a16.285 16.285 0 006.61 2.35l3.105.39a.857.857 0 01.75.85v11.07a18 18 0 01-8.46 15.263l-5.657 3.537a.856.856 0 01-.908 0l-5.657-3.537a18 18 0 01-8.46-15.264V29a.857.857 0 01.75-.85l3.105-.39a16.286 16.286 0 006.612-2.348l3.65-2.282zM41 24.87l-3.196 1.997a18 18 0 01-7.308 2.597l-2.353.291V40.07a16.286 16.286 0 007.654 13.809L41 57.13l5.203-3.252a16.285 16.285 0 007.654-13.81v-10.31l-2.354-.293a18 18 0 01-7.308-2.598L41 24.87z" fill="#333"/><path fill-rule="evenodd" clip-rule="evenodd" d="M47.607 36.464l-6.857 6.857a.857.857 0 01-1.212 0l-3.429-3.428 1.212-1.212 2.822 2.821 6.252-6.252 1.212 1.214z" fill="#333"/></svg>
